X:2037
T:Thurot or Haste to the west 
N:Manx words, Irish air - Haste to the west/wedding. 
C:George Moore, Balladoole
O:Isle of Man
S:Traditional
Z:Clague collection
B:Kiaull Vannin #37 
M:6/8 
Q:140 
K:D 
d|AFA Agf|ede fdB|AFA AdA|FGF E2A|ABA Agf|ede fdB|AFA Age|fdd d2 f| 
fdf faf|gfg afd|gfg afd|fef efg|faa agf|ede fdB|AFA Age|fdd d2|| 
